X:259
T:
R:polska
S:Efter »Florsen» i Burs.
O:Gotland, Burs
M:3/4
L:1/16
K:D
A2d2 d2ef gecA|A2d2 d2ef gecA|Adfd dcec L[EB]4|E2e2 e2fe dcBA|A2d2 d2ef gecA|
A2d2 d2ef gecA|G2G2 F2F2 [A,E]2eg|fedc c4 d4::LG4 LF4 GFED|DGBG GFAF [A,E]4|
ABcd efge dcBA|cAB^G A4 A,4|A,2a2 a2f2 gfed|cdef gecA dAFD|A,2a2 a2f2 gfed|
cdef gecA dAFD|FDEF GABc d2ef|gfed cdef g4|G2b2 F2a2 E2g2|fedc c4 d4:|

